X:2315
T:Polska
T:efter Ola Hansson
R:Polska
O:Brunnby, Skåne
Z:Åke Persson 2012-04-11
M:3/4
L:1/8
K:C
|: ef e2 c2 | dc de fe | ef e2 c2 | BG A2 A2 :|
|: ef ge a2 | ag fg e2 | ef ge a2 | ag fg e2 | ef e2 c2 | BG A2 A2 :|
(:musicend:)

(:music:)
